src/assets/icons/view-grid.svg

<svg fill="none" height="24" viewBox="0 0 24 24" width="24" xmlns="http://www.w3.org/2000/svg"><g stroke="#fff" stroke-linecap="round" stroke-linejoin="round" stroke-width="2"><path d="m4 6c0-1.10457.89543-2 2-2h2c1.10457 0 2 .89543 2 2v2c0 1.10457-.89543 2-2 2h-2c-1.10457 0-2-.89543-2-2z"/><path d="m14 6c0-1.10457.8954-2 2-2h2c1.1046 0 2 .89543 2 2v2c0 1.10457-.8954 2-2 2h-2c-1.1046 0-2-.89543-2-2z"/><path d="m4 16c0-1.1046.89543-2 2-2h2c1.10457 0 2 .8954 2 2v2c0 1.1046-.89543 2-2 2h-2c-1.10457 0-2-.8954-2-2z"/><path d="m14 16c0-1.1046.8954-2 2-2h2c1.1046 0 2 .8954 2 2v2c0 1.1046-.8954 2-2 2h-2c-1.1046 0-2-.8954-2-2z"/></g></svg>

<svg width="24" height="24" viewBox="0 0 24 24" fill="none" xmlns="http://www.w3.org/2000/svg">
<path d="M4 6C4 4.89543 4.89543 4 6 4H8C9.10457 4 10 4.89543 10 6V8C10 9.10457 9.10457 10 8 10H6C4.89543 10 4 9.10457 4 8V6Z" stroke="white" stroke-width="2" stroke-linecap="round" stroke-linejoin="round"/>
<path d="M14 6C14 4.89543 14.8954 4 16 4H18C19.1046 4 20 4.89543 20 6V8C20 9.10457 19.1046 10 18 10H16C14.8954 10 14 9.10457 14 8V6Z" stroke="white" stroke-width="2" stroke-linecap="round" stroke-linejoin="round"/>
<path d="M4 16C4 14.8954 4.89543 14 6 14H8C9.10457 14 10 14.8954 10 16V18C10 19.1046 9.10457 20 8 20H6C4.89543 20 4 19.1046 4 18V16Z" stroke="white" stroke-width="2" stroke-linecap="round" stroke-linejoin="round"/>
<path d="M14 16C14 14.8954 14.8954 14 16 14H18C19.1046 14 20 14.8954 20 16V18C20 19.1046 19.1046 20 18 20H16C14.8954 20 14 19.1046 14 18V16Z" stroke="white" stroke-width="2" stroke-linecap="round" stroke-linejoin="round"/>
</svg>
